X: 69
M:C
L:1/8
K:A
c | d2 d>f e<cc<e | B>AB>c B>AFA | d>cd<f e<cc<e | B>AB>c A/2A/2A Ac |
{/e}d>cd<f {/d}c>Bce | B>AB<c B>AF>f | e<ee>f a>ec>e | B>AB>c A/2A/2A A |]


